icons/AffinityPhotoColor.svg

<svg width="16" height="16" viewBox="0 0 16 16" fill="none" xmlns="http://www.w3.org/2000/svg">
<g clip-path="url(#clip0_1447_3101)">
<path fill-rule="evenodd" clip-rule="evenodd" d="M16 1.5625C16 0.700124 15.2999 0 14.4375 0H1.5625C0.700126 0 0 0.700124 0 1.5625V14.4375C0 15.2998 0.700126 16 1.5625 16H14.4375C15.2999 16 16 15.2998 16 14.4375V1.5625Z" fill="#4E3188"/>
<path fill-rule="evenodd" clip-rule="evenodd" d="M14.8281 10.1576V14.2031C14.8281 14.5439 14.5549 14.8213 14.2156 14.828L10.0841 14.828L7.38657 10.1576H14.8281ZM9.46938 14.828H2.16031L5.81688 8.50432L9.46938 14.828ZM1.57344 14.7869C1.35234 14.7021 1.19156 14.4954 1.1736 14.2494L1.17188 11.461L4.14328 6.31641H6.46579L1.57344 14.7869ZM8.58985 6.3068C8.79219 6.30765 8.98579 6.42651 9.09032 6.60266C9.09141 6.60444 9.09344 6.60804 9.09344 6.60804L9.70751 7.67135C9.70751 7.67135 9.7111 7.6773 9.71282 7.68016C9.81313 7.85569 9.81704 8.07686 9.71673 8.25558C9.51095 8.61561 9.30188 8.97391 9.09438 9.33308C8.99251 9.50775 8.79969 9.62172 8.59469 9.62427C8.2036 9.62591 7.41938 9.625 7.41829 9.625C7.21594 9.62416 7.01922 9.51627 6.91454 9.34011C6.91219 9.3363 6.90782 9.3285 6.90782 9.3285C6.90782 9.3285 6.29344 8.26508 6.29219 8.26261C6.19172 8.08708 6.19188 7.86032 6.29219 7.6816C6.2936 7.67897 6.29672 7.67372 6.29672 7.67372C6.29672 7.67372 6.70782 6.96063 6.9136 6.60408C7.01547 6.42941 7.20875 6.30924 7.4136 6.30668C7.41704 6.30666 7.42391 6.30651 7.42391 6.30651L8.58282 6.3068H8.58985ZM14.4045 1.20509L9.54125 9.625H14.8281V1.79687C14.8281 1.52241 14.6508 1.28902 14.4045 1.20509ZM7.11469 1.17188H13.8089L10.1886 7.43994L6.84157 1.64494L7.11469 1.17188ZM8.61751 5.78423H4.45063L6.53407 2.17712L8.61751 5.78423Z" fill="url(#paint0_radial_1447_3101)"/>
</g>
<defs>
<radialGradient id="paint0_radial_1447_3101" cx="0" cy="0" r="1" gradientUnits="userSpaceOnUse" gradientTransform="translate(11.6099 -1.39467) scale(16.2227 16.2226)">
<stop stop-color="#F9A6FF"/>
<stop offset="1" stop-color="#EA73FF"/>
</radialGradient>
<clipPath id="clip0_1447_3101">
<rect width="16" height="16" fill="white"/>
</clipPath>
</defs>
</svg>

<svg width="16" height="16" fill="none" xmlns="http://www.w3.org/2000/svg"><g clip-path="url(#a)" fill-rule="evenodd" clip-rule="evenodd"><path d="M16 1.563C16 .7 15.3 0 14.437 0H1.563C.7 0 0 .7 0 1.563v12.874C0 15.3.7 16 1.563 16h12.874C15.3 16 16 15.3 16 14.437V1.563z" fill="#4E3188"/><path d="M14.828 10.158v4.045c0 .34-.273.618-.612.625h-4.132l-2.697-4.67h7.441zm-5.359 4.67H2.16l3.657-6.324 3.652 6.324zm-7.896-.041a.626.626 0 0 1-.4-.538l-.001-2.788 2.971-5.145h2.323l-4.893 8.47zm7.017-8.48c.202 0 .396.12.5.296l.003.005.615 1.063.005.01c.1.175.104.396.004.575-.206.36-.415.718-.623 1.077a.593.593 0 0 1-.5.291c-.39.002-1.175.001-1.176.001a.594.594 0 0 1-.503-.285l-.007-.011-.616-1.066a.598.598 0 0 1 0-.581l.005-.008.617-1.07a.6.6 0 0 1 .51-.297H8.59zm5.815-5.102L9.54 9.625h5.287V1.797a.626.626 0 0 0-.423-.592zm-7.29-.033h6.694l-3.62 6.268-3.347-5.795.273-.473zm1.503 4.612H4.45l2.083-3.607 2.084 3.607z" fill="url(#b)"/></g><defs><radialGradient id="b" cx="0" cy="0" r="1" gradientUnits="userSpaceOnUse" gradientTransform="matrix(16.2227 0 0 16.2226 11.61 -1.395)"><stop stop-color="#F9A6FF"/><stop offset="1" stop-color="#EA73FF"/></radialGradient><clipPath id="a"><path fill="#fff" d="M0 0h16v16H0z"/></clipPath></defs></svg>
